!!!OTL: 78. Gas-nign
!!!Genre:	Gas-nign
!!!Mode:	Minor
!!!Listening/dance:	listening
!!!:	*B-
!!!One_Mode:	no
**kern
*thru
*I"P1
*clefG2
*k[b-e-]
*g:
*M3/8
*>A
!LO:TX:a:i:t=G-minor
=1
8b-L
8ddJ
16ccLL
16ddJJ
=2
4g
(16aLL
16b-JJ)
=3
8ccL
8b-J
24b-LL
24a
24gJJ
=4
8b-L
8ddJ
16ccLL
16ddJJ
=5
4g
16aLL
16b-JJ
=6
8ccL
8b-J
24b-LL
24a
24gJJ
=7
!LO:TX:b:Bi:t=Fine
4g
8r
=8:|!
*>A
!LO:TX:a:i:t=G-minor
=1
8b-L
8ddJ
16ccLL
16ddJJ
=2
4g
(16aLL
16b-JJ)
=3
8ccL
8b-J
24b-LL
24a
24gJJ
=4
8b-L
8ddJ
16ccLL
16ddJJ
=5
4g
16aLL
16b-JJ
=6
8ccL
8b-J
24b-LL
24a
24gJJ
=7
!LO:TX:b:Bi:t=Fine
4g
8r
=8:|!
*>B
!!!Begin-Modulation
*B-:
!LO:TX:a:i:t=Bb-major
8fL
8b-J
(16ddLL
16ffJJ)
=9
8ee-L
8ddJ
(16ccLL
16b-JJ)
=10
16ffLL
16ggJJ
16ffLL
16ggJJ
16ffLL
16ggJJ
=11
8ffL
8ee-J
(16ddLL
16ccJJ)
=12
4b-
(16ddLL
16ffJJ)
=13
8ee-L
8ddJ
16ccLL
16b-JJ
=14
8ccL
8ccJ
(8qcc/
16b-LL)
16aJJ
=15
!LO:TX:b:Bi:t=D.C. al Fine
4b-
8r
!!!End-Modulation
==
*-
